bps (180/120)

let steps = take 8 [0,0.125..]

bps (180/120)

let steps = take 16 [0,0.0625..]

d1 $ every 2 (density 2) $ degradeBy 0.5 $ sound "break*8"
|=| cut "1"
|=| gain "1.2"
|=| begin (choose steps)


d1 silence
